X: 34492
T: Riding On A Load Of Hay
R: polka
M: 2/4
K: Edorian
|:E>F GA|Be ef/e/|dB A/B/A/G/|FD D/E/F/D/|
E>F GA|Be e>f|ge af|1 e2 e2:|2 e2 ef||
g2 f>d|ed B>c|dA A/B/A/G/|FD D2|
ga/g/ fg/f/|ed B>c|dA B/A/G/F/|E2 E2|
g2 f>d|ed B>c|dA A/B/A/G/|FD D2|
EG FA|GB e>f|ge af|e2 e2||

